packages/gestalt/src/icons/face-sad.svg

<svg width="24" height="24" xmlns="http://www.w3.org/2000/svg"><path d="M17.088 17.841a1.2 1.2 0 0 1-1.593.58 4.517 4.517 0 0 0-.744-.217c-.738-.168-1.653-.27-2.75-.271-1.098 0-2.012.103-2.752.27-.411.094-.657.18-.741.217a1.199 1.199 0 1 1-1.014-2.174c.237-.11.643-.251 1.223-.383.915-.207 2.008-.33 3.284-.33 1.276.001 2.369.123 3.281.33.582.132.988.273 1.226.384.601.279.86.992.58 1.594zm-.624-6.959a1.675 1.675 0 1 1 0-3.35 1.675 1.675 0 0 1 0 3.35zM6.093 9.207a1.675 1.675 0 1 1 3.35 0 1.675 1.675 0 0 1-3.35 0zM24 11.989C23.995 5.367 18.624 0 12.002 0 5.373 0 0 5.373 0 12c0 6.628 5.373 12 12.002 12C18.623 24 23.995 18.633 24 12.01v-.02z" fill="#aeaeae" fill-rule="evenodd"/></svg>

<svg width="24" height="24" viewBox="0 0 24 24" xmlns="http://www.w3.org/2000/svg"><path fill="#aeaeae" d="M16.46,10.88 C15.54,10.88 14.79,10.13 14.79,9.21 C14.79,8.28 15.54,7.53 16.46,7.53 C17.39,7.53 18.14,8.28 18.14,9.21 C18.14,10.13 17.39,10.88 16.46,10.88 L16.46,10.88 Z M17.09,17.84 C16.81,18.44 16.09,18.70 15.49,18.42 C15.41,18.38 15.16,18.30 14.75,18.20 C14.01,18.04 13.10,17.93 12.00,17.93 C10.90,17.93 9.99,18.04 9.25,18.20 C8.84,18.30 8.59,18.38 8.51,18.42 C7.91,18.70 7.19,18.44 6.91,17.84 C6.63,17.24 6.89,16.53 7.49,16.25 C7.73,16.14 8.14,15.99 8.72,15.86 C9.63,15.66 10.72,15.53 12.00,15.53 C13.28,15.53 14.37,15.66 15.28,15.86 C15.86,15.99 16.27,16.14 16.51,16.25 C17.11,16.53 17.37,17.24 17.09,17.84 L17.09,17.84 Z M6.09,9.21 C6.09,8.28 6.84,7.53 7.77,7.53 C8.69,7.53 9.44,8.28 9.44,9.21 C9.44,10.13 8.69,10.88 7.77,10.88 C6.84,10.88 6.09,10.13 6.09,9.21 L6.09,9.21 Z M24.00,11.99 C24.00,5.37 18.62,0.00 12.00,0.00 C5.37,0.00 0.00,5.37 0.00,12.00 C0.00,18.63 5.37,24.00 12.00,24.00 C18.62,24.00 24.00,18.63 24.00,12.01 L24.00,12.00 L24.00,11.99 Z"/></svg>
